apps/24/internet-feed-reader.svg

<?xml version="1.0" encoding="UTF-8" standalone="no"?>
<!-- Created with Inkscape (http://www.inkscape.org/) -->

<svg
   xmlns:svg="http://www.w3.org/2000/svg"
   xmlns="http://www.w3.org/2000/svg"
   xmlns:xlink="http://www.w3.org/1999/xlink"
   version="1.0"
   width="24"
   height="24"
   id="svg2">
  <defs
     id="defs4">
    <radialGradient
       cx="605.71429"
       cy="486.64789"
       r="117.14286"
       fx="605.71429"
       fy="486.64789"
       id="radialGradient17876"
       xlink:href="#linearGradient5060"
       gradientUnits="userSpaceOnUse"
       gradientTransform="matrix(-2.774389,0,0,1.969706,112.7623,-872.8854)" />
    <linearGradient
       id="linearGradient5060">
      <stop
         id="stop5062"
         style="stop-color:black;stop-opacity:1"
         offset="0" />
      <stop
         id="stop5064"
         style="stop-color:black;stop-opacity:0"
         offset="1" />
    </linearGradient>
    <radialGradient
       cx="605.71429"
       cy="486.64789"
       r="117.14286"
       fx="605.71429"
       fy="486.64789"
       id="radialGradient17874"
       xlink:href="#linearGradient5060"
       gradientUnits="userSpaceOnUse"
       gradientTransform="matrix(2.774389,0,0,1.969706,-1891.633,-872.8854)" />
    <linearGradient
       id="linearGradient5048">
      <stop
         id="stop5050"
         style="stop-color:black;stop-opacity:0"
         offset="0" />
      <stop
         id="stop5056"
         style="stop-color:black;stop-opacity:1"
         offset="0.5" />
      <stop
         id="stop5052"
         style="stop-color:black;stop-opacity:0"
         offset="1" />
    </linearGradient>
    <linearGradient
       x1="302.85715"
       y1="366.64789"
       x2="302.85715"
       y2="609.50507"
       id="linearGradient17872"
       xlink:href="#linearGradient5048"
       gradientUnits="userSpaceOnUse"
       gradientTransform="matrix(2.774389,0,0,1.969706,-1892.179,-872.8854)" />
    <linearGradient
       x1="24"
       y1="43.538155"
       x2="24"
       y2="0"
       id="linearGradient2573"
       xlink:href="#linearGradient3811"
       gradientUnits="userSpaceOnUse"
       gradientTransform="matrix(0.4955591,0,0,0.4955592,0.106581,1.2412404)" />
    <linearGradient
       id="linearGradient5106">
      <stop
         id="stop5108"
         style="stop-color:#f39950;stop-opacity:1"
         offset="0" />
      <stop
         id="stop5110"
         style="stop-color:#cf630f;stop-opacity:1"
         offset="1" />
    </linearGradient>
    <linearGradient
       x1="-23.245302"
       y1="11.918293"
       x2="-23.245302"
       y2="42.469013"
       id="linearGradient2571"
       xlink:href="#linearGradient5106"
       gradientUnits="userSpaceOnUse"
       gradientTransform="matrix(0.4955591,0,0,0.4955592,23.280571,1.2412404)" />
    <linearGradient
       id="linearGradient3217">
      <stop
         id="stop3219"
         style="stop-color:white;stop-opacity:1"
         offset="0" />
      <stop
         id="stop3221"
         style="stop-color:white;stop-opacity:0"
         offset="1" />
    </linearGradient>
    <linearGradient
       x1="21.238298"
       y1="0.71480572"
       x2="21.238298"
       y2="44.02142"
       id="linearGradient2568"
       xlink:href="#linearGradient3217"
       gradientUnits="userSpaceOnUse"
       gradientTransform="matrix(0.4706699,0,0,0.4685079,0.6819143,1.8942445)" />
    <linearGradient
       x1="10.519157"
       y1="44.177509"
       x2="10.519157"
       y2="1.5379653"
       id="linearGradient3351"
       xlink:href="#linearGradient3811"
       gradientUnits="userSpaceOnUse"
       gradientTransform="matrix(0.458318,0,0,0.4590409,1.4305919,1.6591255)" />
    <linearGradient
       id="linearGradient3811">
      <stop
         id="stop3813"
         style="stop-color:#a2440b;stop-opacity:1"
         offset="0" />
      <stop
         id="stop3815"
         style="stop-color:#e2722f;stop-opacity:1"
         offset="1" />
    </linearGradient>
    <linearGradient
       x1="10.519157"
       y1="44.177509"
       x2="10.519157"
       y2="1.5379653"
       id="linearGradient2565"
       xlink:href="#linearGradient3811"
       gradientUnits="userSpaceOnUse"
       gradientTransform="matrix(0.4632705,0,0,0.4637156,1.4026862,1.4722067)" />
  </defs>
  <g
     id="layer1">
    <g
       transform="matrix(0.01186819,0,0,0.01009006,22.555993,20.693887)"
       id="g5022"
       style="stroke-width:44.18577957;stroke-miterlimit:6.4000001;stroke-dasharray:none">
      <rect
         width="1339.6335"
         height="478.35718"
         x="-1559.2523"
         y="-150.69685"
         id="rect4173"
         style="opacity:0.40206185;fill:url(#linearGradient17872);fill-opacity:1;fill-rule:nonzero;stroke:none;stroke-width:44.18577957;marker:none;visibility:visible;display:inline;overflow:visible" />
      <path
         d="m -219.61876,-150.68038 c 0,0 0,478.33079 0,478.33079 142.874166,0.90045 345.40022,-107.16966 345.40014,-239.196175 0,-132.026537 -159.436816,-239.134595 -345.40014,-239.134615 z"
         id="path5058"
         style="opacity:0.40206185;fill:url(#radialGradient17874);fill-opacity:1;fill-rule:nonzero;stroke:none;stroke-width:44.18577957;marker:none;visibility:visible;display:inline;overflow:visible" />
      <path
         d="m -1559.2523,-150.68038 c 0,0 0,478.33079 0,478.33079 -142.8742,0.90045 -345.4002,-107.16966 -345.4002,-239.196175 0,-132.026537 159.4368,-239.134595 345.4002,-239.134615 z"
         id="path5018"
         style="opacity:0.40206185;fill:url(#radialGradient17876);fill-opacity:1;fill-rule:nonzero;stroke:none;stroke-width:44.18577957;marker:none;visibility:visible;display:inline;overflow:visible" />
    </g>
    <rect
       width="21.021961"
       height="21.021961"
       rx="1.5869058"
       ry="1.586906"
       x="1.4890193"
       y="1.4890199"
       id="rect2581"
       style="fill:url(#linearGradient2571);fill-opacity:1;stroke:url(#linearGradient2573);stroke-width:0.97803867;stroke-linecap:round;stroke-linejoin:miter;stroke-miterlimit:4;stroke-opacity:1;stroke-dasharray:none;stroke-dashoffset:0" />
    <rect
       width="19.073219"
       height="19.073219"
       rx="0.69207203"
       ry="0.68884915"
       x="2.4633906"
       y="2.4633906"
       id="rect3368"
       style="opacity:0.5;fill:none;stroke:url(#linearGradient2568);stroke-width:0.92678124;stroke-linecap:round;stroke-linejoin:miter;stroke-miterlimit:4;stroke-opacity:1;stroke-dasharray:none;stroke-dashoffset:0" />
    <path
       d="m 4.5481328,17.890497 c 0,-0.463205 0.1599721,-0.852079 0.4799112,-1.166622 0.3199441,-0.320237 0.7113013,-0.480363 1.1740759,-0.480375 0.4513412,1.2e-5 0.8341328,0.160138 1.1483644,0.480375 0.3199395,0.314543 0.4799064,0.703417 0.4799109,1.166622 -4.5e-6,0.451793 -0.1599714,0.837807 -0.4799109,1.158045 C 7.0362527,19.363085 6.6534611,19.520349 6.2021199,19.520339 5.7393453,19.520349 5.3479881,19.363085 5.028044,19.048542 4.7081049,18.734023 4.5481328,18.348009 4.5481328,17.890497"
       id="path3349"
       style="font-size:13.58991337px;font-style:normal;font-variant:normal;font-weight:bold;font-stretch:normal;text-align:start;line-height:125%;writing-mode:lr-tb;text-anchor:start;fill:white;fill-opacity:1;stroke:url(#linearGradient2565);stroke-width:0.91475278;stroke-linecap:round;stroke-linejoin:round;stroke-miterlimit:4;stroke-opacity:1;stroke-dasharray:none;font-family:Bitstream Vera Serif" />
    <path
       d="m 4.4526262,10.452626 0,2.739901 c 3.5011541,0 6.3448408,2.848172 6.3448408,6.354847 l 2.749907,0 c 0,-5.023076 -4.0795808,-9.094748 -9.0947478,-9.094748 z"
       id="path3347"
       style="font-size:13.58991337px;font-style:normal;font-variant:normal;font-weight:bold;font-stretch:normal;text-align:start;line-height:125%;writing-mode:lr-tb;text-anchor:start;fill:white;fill-opacity:1;stroke:url(#linearGradient3351);stroke-width:0.9052524;stroke-linecap:round;stroke-linejoin:round;stroke-miterlimit:4;stroke-opacity:1;stroke-dasharray:none;font-family:Bitstream Vera Serif" />
    <path
       d="m 4.4573764,4.4573758 0,3.0286425 c 6.6475576,0 12.0450356,5.4026627 12.0450356,12.0566047 l 3.040212,0 c 0,-8.329395 -6.763846,-15.0852472 -15.0852476,-15.0852472 z"
       id="path3365"
       style="font-size:13.58991337px;font-style:normal;font-variant:normal;font-weight:bold;font-stretch:normal;text-align:start;line-height:125%;writing-mode:lr-tb;text-anchor:start;fill:white;fill-opacity:1;stroke:url(#linearGradient2565);stroke-width:0.91475278;stroke-linecap:round;stroke-linejoin:round;stroke-miterlimit:4;stroke-opacity:1;stroke-dasharray:none;font-family:Bitstream Vera Serif" />
  </g>
</svg>

<?xml version="1.0" encoding="UTF-8" standalone="no"?>
<!-- Created with Inkscape (http://www.inkscape.org/) -->
<svg
   xmlns:dc="http://purl.org/dc/elements/1.1/"
   xmlns:cc="http://creativecommons.org/ns#"
   xmlns:rdf="http://www.w3.org/1999/02/22-rdf-syntax-ns#"
   xmlns:svg="http://www.w3.org/2000/svg"
   xmlns="http://www.w3.org/2000/svg"
   xmlns:xlink="http://www.w3.org/1999/xlink"
   xmlns:sodipodi="http://sodipodi.sourceforge.net/DTD/sodipodi-0.dtd"
   xmlns:inkscape="http://www.inkscape.org/namespaces/inkscape"
   width="24"
   height="24"
   id="svg2"
   sodipodi:version="0.32"
   inkscape:version="0.46"
   version="1.0"
   sodipodi:docname="internet-feed-reader.svg"
   inkscape:output_extension="org.inkscape.output.svg.inkscape">
  <defs
     id="defs4">
    <radialGradient
       inkscape:collect="always"
       xlink:href="#linearGradient5060"
       id="radialGradient17876"
       gradientUnits="userSpaceOnUse"
       gradientTransform="matrix(-2.774389,0,0,1.969706,112.7623,-872.8854)"
       cx="605.71429"
       cy="486.64789"
       fx="605.71429"
       fy="486.64789"
       r="117.14286" />
    <linearGradient
       inkscape:collect="always"
       id="linearGradient5060">
      <stop
         offset="0"
         id="stop5062"
         style="stop-color:black;stop-opacity:1;" />
      <stop
         offset="1"
         id="stop5064"
         style="stop-color:black;stop-opacity:0;" />
    </linearGradient>
    <radialGradient
       inkscape:collect="always"
       xlink:href="#linearGradient5060"
       id="radialGradient17874"
       gradientUnits="userSpaceOnUse"
       gradientTransform="matrix(2.774389,0,0,1.969706,-1891.633,-872.8854)"
       cx="605.71429"
       cy="486.64789"
       fx="605.71429"
       fy="486.64789"
       r="117.14286" />
    <linearGradient
       id="linearGradient5048">
      <stop
         offset="0"
         id="stop5050"
         style="stop-color:black;stop-opacity:0;" />
      <stop
         offset="0.5"
         id="stop5056"
         style="stop-color:black;stop-opacity:1;" />
      <stop
         offset="1"
         id="stop5052"
         style="stop-color:black;stop-opacity:0;" />
    </linearGradient>
    <linearGradient
       inkscape:collect="always"
       xlink:href="#linearGradient5048"
       id="linearGradient17872"
       gradientUnits="userSpaceOnUse"
       gradientTransform="matrix(2.774389,0,0,1.969706,-1892.179,-872.8854)"
       x1="302.85715"
       y1="366.64789"
       x2="302.85715"
       y2="609.50507" />
    <linearGradient
       inkscape:collect="always"
       xlink:href="#linearGradient3811"
       id="linearGradient2573"
       gradientUnits="userSpaceOnUse"
       gradientTransform="matrix(0.4955591,0,0,0.4955592,0.106581,1.2412404)"
       x1="24"
       y1="43.538155"
       x2="24"
       y2="0" />
    <linearGradient
       id="linearGradient5106">
      <stop
         id="stop5108"
         offset="0"
         style="stop-color:#f39950;stop-opacity:1;" />
      <stop
         id="stop5110"
         offset="1"
         style="stop-color:#cf630f;stop-opacity:1;" />
    </linearGradient>
    <linearGradient
       inkscape:collect="always"
       xlink:href="#linearGradient5106"
       id="linearGradient2571"
       gradientUnits="userSpaceOnUse"
       gradientTransform="matrix(0.4955591,0,0,0.4955592,23.280571,1.2412404)"
       x1="-23.245302"
       y1="11.918293"
       x2="-23.245302"
       y2="42.469013" />
    <linearGradient
       inkscape:collect="always"
       id="linearGradient3217">
      <stop
         style="stop-color:#ffffff;stop-opacity:1;"
         offset="0"
         id="stop3219" />
      <stop
         style="stop-color:#ffffff;stop-opacity:0"
         offset="1"
         id="stop3221" />
    </linearGradient>
    <linearGradient
       inkscape:collect="always"
       xlink:href="#linearGradient3217"
       id="linearGradient2568"
       gradientUnits="userSpaceOnUse"
       gradientTransform="matrix(0.4706699,0,0,0.4685079,0.6819143,1.8942445)"
       x1="21.238298"
       y1="0.71480572"
       x2="21.238298"
       y2="44.02142" />
    <linearGradient
       inkscape:collect="always"
       xlink:href="#linearGradient3811"
       id="linearGradient3351"
       gradientUnits="userSpaceOnUse"
       gradientTransform="matrix(0.458318,0,0,0.4590409,1.4305919,1.6591255)"
       x1="10.519157"
       y1="44.177509"
       x2="10.519157"
       y2="1.5379653" />
    <linearGradient
       id="linearGradient3811">
      <stop
         style="stop-color:#a2440b;stop-opacity:1;"
         offset="0"
         id="stop3813" />
      <stop
         style="stop-color:#e2722f;stop-opacity:1;"
         offset="1"
         id="stop3815" />
    </linearGradient>
    <linearGradient
       inkscape:collect="always"
       xlink:href="#linearGradient3811"
       id="linearGradient2565"
       gradientUnits="userSpaceOnUse"
       gradientTransform="matrix(0.4632705,0,0,0.4637156,1.4026862,1.4722067)"
       x1="10.519157"
       y1="44.177509"
       x2="10.519157"
       y2="1.5379653" />
  </defs>
  <sodipodi:namedview
     id="base"
     pagecolor="#ffffff"
     bordercolor="#666666"
     borderopacity="1.0"
     gridtolerance="10000"
     guidetolerance="10"
     objecttolerance="10"
     inkscape:pageopacity="0.0"
     inkscape:pageshadow="2"
     inkscape:zoom="10.375"
     inkscape:cx="12"
     inkscape:cy="12"
     inkscape:document-units="px"
     inkscape:current-layer="layer1"
     showgrid="false"
     inkscape:window-width="640"
     inkscape:window-height="720"
     inkscape:window-x="798"
     inkscape:window-y="24" />
  <metadata
     id="metadata7">
    <rdf:RDF>
      <cc:Work
         rdf:about="">
        <dc:format>image/svg+xml</dc:format>
        <dc:type
           rdf:resource="http://purl.org/dc/dcmitype/StillImage" />
      </cc:Work>
    </rdf:RDF>
  </metadata>
  <g
     inkscape:label="Layer 1"
     inkscape:groupmode="layer"
     id="layer1">
    <g
       id="g5022"
       transform="matrix(1.1868193e-2,0,0,1.0090062e-2,22.555993,20.693887)"
       style="stroke-width:44.18577957000000112;stroke-miterlimit:6.40000009999999975;stroke-dasharray:none">
      <rect
         style="opacity:0.40206185;fill:url(#linearGradient17872);fill-opacity:1;fill-rule:nonzero;stroke:none;stroke-width:44.18577957;stroke-linecap:round;stroke-linejoin:miter;marker:none;marker-start:none;marker-mid:none;marker-end:none;stroke-miterlimit:6.4000001;stroke-dasharray:none;stroke-dashoffset:0;stroke-opacity:1;visibility:visible;display:inline;overflow:visible"
         height="478.35718"
         width="1339.6335"
         y="-150.69685"
         x="-1559.2523"
         id="rect4173" />
      <path
         sodipodi:nodetypes="cccc"
         style="opacity:0.40206185;fill:url(#radialGradient17874);fill-opacity:1;fill-rule:nonzero;stroke:none;stroke-width:44.18577957;stroke-linecap:round;stroke-linejoin:miter;marker:none;marker-start:none;marker-mid:none;marker-end:none;stroke-miterlimit:6.4000001;stroke-dasharray:none;stroke-dashoffset:0;stroke-opacity:1;visibility:visible;display:inline;overflow:visible"
         id="path5058"
         d="M -219.61876,-150.68038 C -219.61876,-150.68038 -219.61876,327.65041 -219.61876,327.65041 C -76.744594,328.55086 125.78146,220.48075 125.78138,88.454235 C 125.78138,-43.572302 -33.655436,-150.68036 -219.61876,-150.68038 z" />
      <path
         sodipodi:nodetypes="cccc"
         style="opacity:0.40206185;fill:url(#radialGradient17876);fill-opacity:1;fill-rule:nonzero;stroke:none;stroke-width:44.18577957;stroke-linecap:round;stroke-linejoin:miter;marker:none;marker-start:none;marker-mid:none;marker-end:none;stroke-miterlimit:6.4000001;stroke-dasharray:none;stroke-dashoffset:0;stroke-opacity:1;visibility:visible;display:inline;overflow:visible"
         d="M -1559.2523,-150.68038 C -1559.2523,-150.68038 -1559.2523,327.65041 -1559.2523,327.65041 C -1702.1265,328.55086 -1904.6525,220.48075 -1904.6525,88.454235 C -1904.6525,-43.572302 -1745.2157,-150.68036 -1559.2523,-150.68038 z"
         id="path5018" />
    </g>
    <rect
       style="fill:url(#linearGradient2571);fill-opacity:1;stroke:url(#linearGradient2573);stroke-width:0.97803867000000000;stroke-linecap:round;stroke-linejoin:miter;stroke-miterlimit:4;stroke-dasharray:none;stroke-dashoffset:0;stroke-opacity:1"
       id="rect2581"
       width="21.021961"
       height="21.021961"
       x="1.4890193"
       y="1.4890199"
       rx="1.5869058"
       ry="1.586906" />
    <rect
       style="opacity:0.50000000000000000;fill:none;fill-opacity:1;stroke:url(#linearGradient2568);stroke-width:0.92678123999999995;stroke-linecap:round;stroke-linejoin:miter;stroke-miterlimit:4;stroke-dasharray:none;stroke-dashoffset:0;stroke-opacity:1"
       id="rect3368"
       width="19.073219"
       height="19.073219"
       x="2.4633906"
       y="2.4633906"
       rx="0.69207203"
       ry="0.68884915" />
    <path
       style="font-size:13.58991336999999966px;font-style:normal;font-variant:normal;font-weight:bold;font-stretch:normal;text-align:start;line-height:125%;writing-mode:lr-tb;text-anchor:start;fill:#ffffff;fill-opacity:1;stroke:url(#linearGradient2565);stroke-width:0.91475278000000004;stroke-linecap:round;stroke-linejoin:round;stroke-miterlimit:4;stroke-dasharray:none;stroke-opacity:1;font-family:Bitstream Vera Serif"
       d="M 4.5481328,17.890497 C 4.5481328,17.427292 4.7081049,17.038418 5.028044,16.723875 C 5.3479881,16.403638 5.7393453,16.243512 6.2021199,16.2435 C 6.6534611,16.243512 7.0362527,16.403638 7.3504843,16.723875 C 7.6704238,17.038418 7.8303907,17.427292 7.8303952,17.890497 C 7.8303907,18.34229 7.6704238,18.728304 7.3504843,19.048542 C 7.0362527,19.363085 6.6534611,19.520349 6.2021199,19.520339 C 5.7393453,19.520349 5.3479881,19.363085 5.028044,19.048542 C 4.7081049,18.734023 4.5481328,18.348009 4.5481328,17.890497"
       id="path3349" />
    <path
       style="font-size:13.58991336999999966px;font-style:normal;font-variant:normal;font-weight:bold;font-stretch:normal;text-align:start;line-height:125%;writing-mode:lr-tb;text-anchor:start;fill:#ffffff;fill-opacity:1;stroke:url(#linearGradient3351);stroke-width:0.90525239999999996;stroke-linecap:round;stroke-linejoin:round;stroke-miterlimit:4;stroke-dasharray:none;stroke-opacity:1;font-family:Bitstream Vera Serif"
       d="M 4.4526262,10.452626 L 4.4526262,13.192527 C 7.9537803,13.192527 10.797467,16.040699 10.797467,19.547374 L 13.547374,19.547374 C 13.547374,14.524298 9.4677932,10.452626 4.4526262,10.452626 z"
       id="path3347" />
    <path
       style="font-size:13.58991336999999966px;font-style:normal;font-variant:normal;font-weight:bold;font-stretch:normal;text-align:start;line-height:125%;writing-mode:lr-tb;text-anchor:start;fill:#ffffff;fill-opacity:1;stroke:url(#linearGradient2565);stroke-width:0.91475278000000004;stroke-linecap:round;stroke-linejoin:round;stroke-miterlimit:4;stroke-dasharray:none;stroke-opacity:1;font-family:Bitstream Vera Serif"
       d="M 4.4573764,4.4573758 L 4.4573764,7.4860183 C 11.104934,7.4860183 16.502412,12.888681 16.502412,19.542623 L 19.542624,19.542623 C 19.542624,11.213228 12.778778,4.4573758 4.4573764,4.4573758 z"
       id="path3365" />
  </g>
</svg>
